symbolic/24x24/apps/american-truck-simulator.svg

<svg width="24" height="24" version="1.1" xmlns="http://www.w3.org/2000/svg">
 <g transform="translate(1,1)">
  <circle cx="11" cy="11.5" r="10" style="opacity:.2"/>
  <circle cx="11" cy="11" r="10" style="fill:#f14223"/>
  <path d="M 11,1 A 10,10 0 0 0 1,11 10,10 0 0 0 1.01075,11.291 10,10 0 0 1 11,1.5 10,10 0 0 1 20.9895,11.209 10,10 0 0 0 21,11 10,10 0 0 0 11,1 Z" style="fill:#ffffff;opacity:.2"/>
  <circle cx="11" cy="11" r="7" style="fill:#4e59b3"/>
  <path d="m11 4.5a7 7 0 0 0-7 7 7 7 0 0 0 7 7 7 7 0 0 0 7-7 7 7 0 0 0-7-7zm0 1a6 6 0 0 1 1.851563 0.2958985l-0.851563 1.7041015-1 2-1-2-0.849609-1.7001955a6 6 0 0 1 1.849609-0.2998045zm-2.7246095 0.654297 0.6035155 1.810547 0.707032 2.121094-2.121094-0.707032-1.804688-0.601562a6 6 0 0 1 1.15918-1.581055 6 6 0 0 1 1.4560545-1.041992zm5.4472655 0.00586a6 6 0 0 1 1.581055 1.15918 6 6 0 0 1 1.041992 1.4560545l-1.810547 0.6035155-2.121093 0.707031 0.707031-2.121093zm-8.4267575 3.488281 1.7041015 0.851562 2 1-2 1-1.7001955 0.84961a6 6 0 0 1-0.2998045-1.84961 6 6 0 0 1 0.2958985-1.851562zm11.404296 0.0019a6 6 0 0 1 0.299805 1.849662 6 6 0 0 1-0.295899 1.851563l-1.704101-0.851563-2-1 2-1 1.700195-0.849609zm-5.700195 0.349662a0.5 0.5 0 0 1 0.5 0.5 0.5 0.5 0 0 1-0.5 0.5 0.5 0.5 0 0 1-0.5-0.5 0.5 0.5 0 0 1 0.5-0.5zm-1 1a0.5 0.5 0 0 1 0.5 0.5 0.5 0.5 0 0 1-0.5 0.5 0.5 0.5 0 0 1-0.5-0.5 0.5 0.5 0 0 1 0.5-0.5zm2 0a0.5 0.5 0 0 1 0.5 0.5 0.5 0.5 0 0 1-0.5 0.5 0.5 0.5 0 0 1-0.5-0.5 0.5 0.5 0 0 1 0.5-0.5zm-1 1a0.5 0.5 0 0 1 0.5 0.5 0.5 0.5 0 0 1-0.5 0.5 0.5 0.5 0 0 1-0.5-0.5 0.5 0.5 0 0 1 0.5-0.5zm-1.414062 0.914063-0.707032 2.121093-0.601562 1.804688a6 6 0 0 1-1.581055-1.15918 6 6 0 0 1-1.041992-1.456054l1.810547-0.603516zm2.828125 0 2.121093 0.707031 1.804688 0.601562a6 6 0 0 1-1.15918 1.581055 6 6 0 0 1-1.456054 1.041992l-0.603516-1.810547zm-1.414063 0.585937 1 2 0.84961 1.700195a6 6 0 0 1-1.84961 0.299805 6 6 0 0 1-1.851562-0.295899l0.851562-1.704101z" style="opacity:.2"/>
  <path d="m 11,4 a 7,7 0 0 0 -7,7 7,7 0 0 0 7,7 7,7 0 0 0 7,-7 7,7 0 0 0 -7,-7 z m 0,1 a 6,6 0 0 1 1.851563,0.2958985 L 12,7 11,9 10,7 9.150391,5.2998045 A 6,6 0 0 1 11,5 Z M 8.2753905,5.654297 8.878906,7.464844 9.585938,9.585938 7.464844,8.878906 5.660156,8.277344 A 6,6 0 0 1 6.819336,6.696289 6,6 0 0 1 8.2753905,5.654297 Z m 5.4472655,0.00586 a 6,6 0 0 1 1.581055,1.15918 6,6 0 0 1 1.041992,1.4560545 L 14.535156,8.878907 12.414063,9.585938 13.121094,7.464845 Z M 5.2958985,9.148438 7,10 9,11 7,12 5.2998045,12.84961 A 6,6 0 0 1 5,11 6,6 0 0 1 5.2958985,9.148438 Z m 11.4042965,0.0019 A 6,6 0 0 1 17,11 6,6 0 0 1 16.704101,12.851563 L 15,12 13,11 15,10 16.700195,9.150391 Z M 11,9.5 A 0.5,0.5 0 0 1 11.5,10 0.5,0.5 0 0 1 11,10.5 0.5,0.5 0 0 1 10.5,10 0.5,0.5 0 0 1 11,9.5 Z m -1,1 A 0.5,0.5 0 0 1 10.5,11 0.5,0.5 0 0 1 10,11.5 0.5,0.5 0 0 1 9.5,11 0.5,0.5 0 0 1 10,10.5 Z m 2,0 A 0.5,0.5 0 0 1 12.5,11 0.5,0.5 0 0 1 12,11.5 0.5,0.5 0 0 1 11.5,11 0.5,0.5 0 0 1 12,10.5 Z m -1,1 A 0.5,0.5 0 0 1 11.5,12 0.5,0.5 0 0 1 11,12.5 0.5,0.5 0 0 1 10.5,12 0.5,0.5 0 0 1 11,11.5 Z M 9.585938,12.414063 8.878906,14.535156 8.277344,16.339844 A 6,6 0 0 1 6.696289,15.180664 6,6 0 0 1 5.654297,13.72461 l 1.810547,-0.603516 z m 2.828125,0 2.121093,0.707031 1.804688,0.601562 a 6,6 0 0 1 -1.15918,1.581055 6,6 0 0 1 -1.456054,1.041992 L 13.121094,14.535156 Z M 11,13 l 1,2 0.84961,1.700195 A 6,6 0 0 1 11,17 6,6 0 0 1 9.148438,16.704101 L 10,15 Z" style="fill:#ffffff"/>
 </g>
</svg>

<svg width="24" height="24" xmlns="http://www.w3.org/2000/svg"><g transform="translate(1 1)"><circle cx="11" cy="11.5" r="10" style="opacity:.2"/><circle cx="11" cy="11" r="10" style="fill:#f14223"/><path d="M11 1A10 10 0 0 0 1 11a10 10 0 0 0 .01.291A10 10 0 0 1 11 1.5a10 10 0 0 1 9.99 9.709A10 10 0 0 0 21 11 10 10 0 0 0 11 1z" style="fill:#fff;opacity:.2"/><circle cx="11" cy="11" r="7" style="fill:#4e59b3"/><path d="M11 4.5a7 7 0 0 0-7 7 7 7 0 0 0 7 7 7 7 0 0 0 7-7 7 7 0 0 0-7-7zm0 1a6 6 0 0 1 1.852.296L12 7.5l-1 2-1-2-.85-1.7A6 6 0 0 1 11 5.5zm-2.725.654.604 1.81.707 2.122-2.121-.707-1.805-.602a6 6 0 0 1 1.16-1.58 6 6 0 0 1 1.455-1.043zm5.448.006a6 6 0 0 1 1.58 1.16 6 6 0 0 1 1.043 1.455l-1.81.604-2.122.707.707-2.121zM5.296 9.648 7 10.5l2 1-2 1-1.7.85A6 6 0 0 1 5 11.5a6 6 0 0 1 .296-1.852zM16.7 9.65a6 6 0 0 1 .3 1.85 6 6 0 0 1-.296 1.852L15 12.5l-2-1 2-1 1.7-.85zM11 10a.5.5 0 0 1 .5.5.5.5 0 0 1-.5.5.5.5 0 0 1-.5-.5.5.5 0 0 1 .5-.5zm-1 1a.5.5 0 0 1 .5.5.5.5 0 0 1-.5.5.5.5 0 0 1-.5-.5.5.5 0 0 1 .5-.5zm2 0a.5.5 0 0 1 .5.5.5.5 0 0 1-.5.5.5.5 0 0 1-.5-.5.5.5 0 0 1 .5-.5zm-1 1a.5.5 0 0 1 .5.5.5.5 0 0 1-.5.5.5.5 0 0 1-.5-.5.5.5 0 0 1 .5-.5zm-1.414.914-.707 2.121-.602 1.805a6 6 0 0 1-1.58-1.16 6 6 0 0 1-1.043-1.455l1.81-.604zm2.828 0 2.121.707 1.805.602a6 6 0 0 1-1.16 1.58 6 6 0 0 1-1.455 1.043l-.604-1.81zM11 13.5l1 2 .85 1.7a6 6 0 0 1-1.85.3 6 6 0 0 1-1.852-.296L10 15.5z" style="opacity:.2"/><path d="M11 4a7 7 0 0 0-7 7 7 7 0 0 0 7 7 7 7 0 0 0 7-7 7 7 0 0 0-7-7zm0 1a6 6 0 0 1 1.852.296L12 7l-1 2-1-2-.85-1.7A6 6 0 0 1 11 5zm-2.725.654.604 1.81.707 2.122-2.121-.707-1.805-.602a6 6 0 0 1 1.16-1.58 6 6 0 0 1 1.455-1.043zm5.448.006a6 6 0 0 1 1.58 1.16 6 6 0 0 1 1.043 1.455l-1.81.604-2.122.707.707-2.121zM5.296 9.148 7 10l2 1-2 1-1.7.85A6 6 0 0 1 5 11a6 6 0 0 1 .296-1.852zM16.7 9.15A6 6 0 0 1 17 11a6 6 0 0 1-.296 1.852L15 12l-2-1 2-1 1.7-.85zM11 9.5a.5.5 0 0 1 .5.5.5.5 0 0 1-.5.5.5.5 0 0 1-.5-.5.5.5 0 0 1 .5-.5zm-1 1a.5.5 0 0 1 .5.5.5.5 0 0 1-.5.5.5.5 0 0 1-.5-.5.5.5 0 0 1 .5-.5zm2 0a.5.5 0 0 1 .5.5.5.5 0 0 1-.5.5.5.5 0 0 1-.5-.5.5.5 0 0 1 .5-.5zm-1 1a.5.5 0 0 1 .5.5.5.5 0 0 1-.5.5.5.5 0 0 1-.5-.5.5.5 0 0 1 .5-.5zm-1.414.914-.707 2.121-.602 1.805a6 6 0 0 1-1.58-1.16 6 6 0 0 1-1.043-1.455l1.81-.604zm2.828 0 2.121.707 1.805.602a6 6 0 0 1-1.16 1.58 6 6 0 0 1-1.455 1.043l-.604-1.81zM11 13l1 2 .85 1.7A6 6 0 0 1 11 17a6 6 0 0 1-1.852-.296L10 15z" style="fill:#fff"/></g></svg>
